X:346
T:B346-  The Old Man's Wish
Q:1/4=120
L:1/4
M:3/4
K:F
F/G/|A3/B/c|c3/2B/A|Bcd|G2^c|\
c3/2d/e|d3/2e/f|e3/2d/c|c2c/c/|\
fga|b3/2a/g|a(b/a/) (g/f/)|g3/2f/e|\
ffc|d2c|A3/2G/F|F2F/G/|\
A3/2B/c|ccc/c/|c3/2d/=B|c3/2d/_e|\
AA^c|dde/f/|^c(e/f/) (e/d/)|d2f3/4e/4|\
f2c|d2g/a/|a3/2g/f|d2A/A/|\
B(d/c/) (_e/d/)|(f/e/) (g/f/) (a/g/)|a3/2g/f|f2|]

